X:1
T:Title
%%score { ( 1 3 ) | ( 2 4 ) }
L:1/8
M:6/8
K:G
V:1 treble nm="Grand Piano"
V:3 treble 
V:2 bass 
V:4 bass 
V:1
 z3 z2[Q:1/4=100] D | B2 B B2 [B,D] | [CE] [EG]2- [EG]2 E | D2 F A2 D |[M:5/8] B-B- B3 | %5
[M:1/8] [DB] |[M:3/4] [Dd]2 [DB] [B,G]2 [B,D] | [CE][EG]- [EG]3 [^DA] | [DB]2 [Fc] [DGB]2 [CFA] | %9
[M:5/8] [B,G]-[B,G]- [B,G]3 |[M:1/8][K:bass] [B,D] | %11
[M:3/4] [G,B,D]>[G,B,] [G,B,D] [G,CE]2[K:treble] [CEG] | [GB]6 | E>F [EG] [EA]2 [EG] | %14
[M:5/8] D-D- D3 |[M:1/8] D |[M:3/4] D2 F A2[K:bass] D | z D,[K:treble] G [DB]2 [DG] | %18
 E>E E [^CA]2 [CB] |[M:5/8] A-A- A3 |[M:1/8] D |[M:3/4] D>B, [B,D] [G,CE]2 [CEG] | [GB]6 | %23
 E>F [EG] [EA]2 [EG] |[M:5/8] D-D- D3 |[M:1/8] [G,B,D] |[M:7/8] [G,CE]2 [CEG] [Ec]3 [Ge] | %27
 [Gd]2 [GB] [EG]3 [EA] |[M:15/16] [GB][Gd]/-[Gd][EGc]/-[EGc]/[DFB]-[DFB]->[DFB][CFA] | %29
[M:5/8] G2- [EG-] [DG]2 |] %30
V:2
 z3 z2 [G,B,] | [G,B,D]2 [G,B,D] [G,B,D]2 [G,,G,] | [C,G,] [C,C]2- [C,C]2 [C,G,C] | %3
 [D,F,C]2 [D,A,C] [D,CD]2 [D,A,C] |[M:5/8] [G,B,D]-[G,B,D]- [G,B,D]3 |[M:1/8] [G,,G,] | %6
[M:3/4] [B,,G,]2 [G,,G,] [G,,G,]2 [G,,G,] | [C,G,][C,C]- [C,C]3 [C,C] | [D,B,]2 [D,A,] D,2 D, | %9
[M:5/8] G,-G,- G,3 |[M:1/8] G, |[M:3/4] G,,>G,, G,, C,2 C, | G,2 G, G,2 [G,B,D] | %13
 [C,G,C]>[C,G,C] [C,G,] [C,C]2 [C,C] |[M:5/8] [G,B,]2 G, G,2 |[M:1/8] [G,B,] | %16
[M:3/4] [D,F,C]2 [D,A,C] [D,CD]2 [D,A,C] | [G,B,]2 [B,,G,B,] [G,,G,]2 [B,,G,] | %18
 [C,G,C]>[C,G,C] [C,G,C] [A,,A,]2 [A,,G,] |[M:5/8] [D,F,D]2 [E,G,] [F,A,]2 |[M:1/8] [D,F,C] | %21
[M:3/4] [G,B,]>G, G, C,2 C, | G,2 G, G,2 [G,B,D] | [C,G,C]>[C,G,C] [C,G,] [C,C]2 [C,C] | %24
[M:5/8] [G,B,]2 G, G,2 |[M:1/8] G,, |[M:7/8] C,2 C, [C,G,]3 [C,C] | [G,B,]2 [D,D] [E,^C]3 [E,C] | %28
[M:15/16] [D,D][D,B,]/-[D,B,]D,/-D,/D,-D,->D,D, |[M:5/8] z2 C B,2 |] %30
V:3
 x6 | x6 | x6 | x6 |[M:5/8] x5 |[M:1/8] x |[M:3/4] x6 | x6 | x6 |[M:5/8] x5 |[M:1/8][K:bass] x | %11
[M:3/4] x5[K:treble] x | D2 D D2 G | x6 |[M:5/8] z2 B, B,2 |[M:1/8] x |[M:3/4] x5[K:bass] x | %17
 D2[K:treble] z2 z2 | x6 |[M:5/8] z2 ^C =C2 |[M:1/8] x |[M:3/4] x6 | D2 D D2 G | x6 | %24
[M:5/8] z2 B, B,2 |[M:1/8] x |[M:7/8] x7 | x7 |[M:15/16] x15/2 |[M:5/8] B,2 z z2 |] %30
V:4
 x6 | x6 | x6 | x6 |[M:5/8] x5 |[M:1/8] x |[M:3/4] x6 | x6 | x6 |[M:5/8] x5 |[M:1/8] x | %11
[M:3/4] x6 | x6 | x6 |[M:5/8] x5 |[M:1/8] x |[M:3/4] x6 | x6 | x6 |[M:5/8] x5 |[M:1/8] x | %21
[M:3/4] x6 | x6 | x6 |[M:5/8] x5 |[M:1/8] x |[M:7/8] x7 | x7 |[M:15/16] x15/2 | %29
[M:5/8] G,-G,- G,3 |] %30

